X: 22769
T: Långdans Från Sollerön
R: waltz
M: 3/4
K: Dminor
|:^cB|"Dm" A2 ^c2 d2|"A7" e3 g "Dm" f2|d2 fe d^c|d3 ^c A2|
"Dm" A2 ^c3 d|"A7" e3 g "Dm" f2|d2 fe d^c|d4:|
|:df|"Dm" .a2 .g2 "A7" .e2|g2 ge "Dm" f2|f2 a2 "A7" g2|e2 ge "Dm" f2|d2 fe d^c|d4:|
"2nd instrument, D - f"
|:AG|F2 A2 FG|A^c ec d2|F2 DE FG|F2 B2 AG|
F2 A2 F2|B2 AE D2|F2 DE B2|AF D2:|
|:A^c|.f2 .e2 .^c2|A^c ec d2|DE F2 B2|B2 A^c d2|B2 D2 AF|D4:|

